X:260
T:Drummer,The. RH.260
T:Ca’ Hackie,aka. RH.260
R:air
S:Rev.R.Harrison’s MS,c1815,Cumbria
O:England
A:Temple Sowerby,Cumbria
Z:vmp.Simon Wilson. Review PJH, 2008.
M:2/4
L:1/8
Q:1/4=100
K:Em
E|ABcA|E2EF|G2GB|(d/c/B/A/) GB|\
AGAB|E2E=f|edcB|A2A:|!
|:B|c>Bce|d>cde|c>Bce|(d/c/B/A/) GB|\
c>Bce|dcd=f|edcB|A2A:|

